!!!!SEGMENT: pl-kozmzk--mzk-m-26--001_stefani-jozef--msza-swieta-kyrie.krn
!!!cenid: 18xx:2945
!!!COM: Stefani, Józef
!!!COM-rismID: pe30024097
!!!CDT: 1800/04/16-1876/03/19
!!!CNT: Polish
!!!OPR: Msza Święta
!!!OTL: Kyrie
!!!OMV: 001
!!!PDT:
!!!AGN: Sacred; Mass
!!!SMS-siglum: PL-KOZmzk
!!!SMS-shelfmark: mzk/m/26
!!!SMS-shelfwork: 001-001 M
!!!SMS-variant:
!!!SMS-altvar:
!!!NIFC-rismSourceID: 1001024881
!!!NIFC-islandoraID: pl-kozmzk:12693
!!!URL-pdf-islandora: https://repozytorium.nifc.pl/islandora/object/pl-kozmzk%3A12693/datastream/PDF/view
!!!URL-scan: https://polish.musicsources.pl/pl/lokalizacje/galeria/rekopisy/460 @EN{Scan on Polish Music Sources Website} @PL{Skany w portalu Dziedzictwo Muzyki Polskiej w otwartym dostępie}
!!!ONB-nifc: UWAGA: Części mszy: 1. Kyrie, 2. Gloria, 3. Graduale, 4. Credo, 5. Offertorium, 6. Sanctus, 7. Benedictus, 8. Agnus Dei, 9. Dona nobis
!!!OMD: Allo Moderato.
!!!AIN: 1 empty 1 organ 2 tenor
!!!key:
**kern	**kern	**kern	**text	**kern	**text	**dynam	**kern	**text	**dynam
*part4	*part4	*part3	*part3	*part2	*part2	*part2	*part1	*part1	*part1
*staff5	*staff4	*staff3	*staff3	*staff2	*staff2	*	*staff1	*staff1	*
*Iorgan	*Iorgan	*Iempty	*	*Itenor	*	*	*Itenor	*	*
*I"[Organy]	*I"[Organy]	*I"[Bas]	*	*I"[Tenor 2]	*	*	*I"[Tenor 1]	*	*
*clefF4	*clefG2	*clefF4	*	*clefC4	*	*	*clefC4	*	*
*k[b-e-]	*k[b-e-]	*k[b-e-]	*	*k[b-e-]	*	*	*k[b-e-]	*	*
*B-:	*B-:	*B-:	*	*B-:	*	*	*B-:	*	*
*M2/2	*M2/2	*M2/2	*	*M2/2	*	*	*M2/2	*	*
*met(c|)	*met(c|)	*met(c|)	*	*met(c|)	*	*	*met(c|)	*	*
=1	=1	=1	=1	=1	=1	=1	=1	=1	=1
!	!	!	!	!	!	!	!LO:TX:t=P:problem=all\left, middle, right&colon; global	!	!
!	!	!	!	!	!	!	!LO:TX:a:t=Missa No 12.	!	!
2F 2FF/	2f 2A/	1r	.	1r	.	.	1r	.	.
2E- 2EE-/	2g 2B-/	.	.	.	.	.	.	.	.
=2	=2	=2	=2	=2	=2	=2	=2	=2	=2
2F 2FF/	2f 2A/	1r	.	1r	.	.	1r	.	.
2E- 2EE-/	2g 2B-/	.	.	.	.	.	.	.	.
=3	=3	=3	=3	=3	=3	=3	=3	=3	=3
*	*^	*	*	*	*	*	*	*	*
2F 2FF/	2f/	1A	1r	.	1r	.	.	1r	.	.
2F#X 2FF#X/	2e-X/	.	.	.	.	.	.	.	.	.
*	*v	*v	*	*	*	*	*	*	*	*
=4	=4	=4	=4	=4	=4	=4	=4	=4	=4
4G 4GG/	4d 4B-/	1r	.	1r	.	.	1r	.	.
4GG 4GGG/	4b- 4g 4d/	.	.	.	.	.	.	.	.
4AA 4AAA/	4a 4f#X 4d 4c/	.	.	.	.	.	.	.	.
4BB- 4BBB-/	4g 4d 4B-/	.	.	.	.	.	.	.	.
=5	=5	=5	=5	=5	=5	=5	=5	=5	=5
1C 1CC	1f 1c 1A	1r	.	1r	.	.	1r	.	.
=6	=6	=6	=6	=6	=6	=6	=6	=6	=6
*	*^	*	*	*	*	*	*	*	*
1C 1CC	2f/	1B- 1G	1r	.	1r	.	.	1r	.	.
.	2en/	.	.	.	.	.	.	.	.	.
*	*v	*v	*	*	*	*	*	*	*	*
!!LO:LB:g=original
=7	=7	=7	=7	=7	=7	=7	=7	=7	=7
2F 2FF/	2f 2A/	1r	.	1r	.	.	1r	.	.
2F 2FF/	2f 2A/	.	.	.	.	.	.	.	.
=8	=8	=8	=8	=8	=8	=8	=8	=8	=8
2E- 2EE-/	2g 2B-/	1r	.	1r	.	.	2r	.	.
2C 2CC/	2a 2f 2e- 2c/	.	.	.	.	.	4r	.	.
!	!	!	!	!	!	!	!	!	!LO:DY:rj
.	.	.	.	.	.	.	4F/	Z od-	f
=9	=9	=9	=9	=9	=9	=9	=9	=9	=9
*	*^	*	*	*	*	*	*	*	*
*	*	*	*	*	*	*	*	*2\right	*	*
4BB-/	2b- 2d/	2ryy	1r	.	2r	.	.	2B-^\	-gło-	.
4B-\	.	.	.	.	.	.	.	.	.	.
4A\	2cc/	4f\	.	.	4r	.	.	2c^\	-sem	.
!	!	!	!	!	!	!	!LO:DY:rj	!	!	!
4F\	.	4a\	.	.	4F/	Z od-	f	.	.	.
=10	=10	=10	=10	=10	=10	=10	=10	=10	=10	=10
*	*	*2\right	*	*	*2\right	*	*	*	*	*
4BB-/	2dd/	2b-\	2r	.	(2B-^\	-gło-	.	(2d^\	wdzię-	.
4B-\	.	.	.	.	.	.	.	.	.	.
4E-\	4ee- 4cc\	2ryy	4r	.	4c\)	.	.	4e-\)	.	.
4F\	4cc 4a\	.	4F\	Z od-	4A\	-sem	.	4c\	-cznych	.
*	*v	*v	*	*	*	*	*	*	*	*
=11	=11	=11	=11	=11	=11	=11	=11	=11	=11
4BB-/	2dd 2b-\	4BB-/	-gło-	(2B-\	pie-	.	(2d\	pie-	.
4B-\	.	4B-\	-sem	.	.	.	.	.	.
4F\	4cc 4a\	(4F\	pie-	4A\	.	.	4c\	.	.
4G\	4b- 4g\	4G\)	.	4G\)	.	.	4B-\)	.	.
=12	=12	=12	=12	=12	=12	=12	=12	=12	=12
*^	*	*	*	*	*	*	*	*	*
*2\right	*	*	*2\right	*	*	*	*	*	*	*
2.F\	2.ryy	2.cc 2.a\	2.F\	-ni	2.A\	-ni	.	2.c\	-ni	.
!	!	!	!	!	!	!	!LO:DY:rj	!	!	!
4F/	4r	4r	4r	.	4F/	ku	f	4r	.	.
!!LO:LB:g=original
=13	=13	=13	=13	=13	=13	=13	=13	=13	=13	=13
2f\	1r	2r	1r	.	2f^\	to-	.	2r	.	.
2e-\	.	4r	.	.	4e-\	-bie	.	4r	.	.
!	!	!	!	!	!	!	!	!	!	!LO:DY:rj
.	.	4f/	.	.	4e-\	ku	.	4F/	ku	f
=14	=14	=14	=14	=14	=14	=14	=14	=14	=14	=14
*	*	*^	*	*	*	*	*	*	*	*
*	*	*	*	*	*	*	*ij	*	*	*	*
2d\	2r	2ff/	2.f\	2r	.	2d\	to-	.	2f^\	to-	.
2c\	4r	2ee-/	.	4r	.	2c\	-bie	.	2e-^\	-bie	.
*	*	*	*	*	*	*	*Xij	*	*	*	*
.	4F\	.	4cc\	4F\	ku	.	.	.	.	.	.
*v	*v	*	*	*	*	*	*	*	*	*	*
*	*v	*v	*	*	*	*	*	*	*	*
=15	=15	=15	=15	=15	=15	=15	=15	=15	=15
4BB-\	2dd 2b- 2f/	4BB-/	to-	2.B-\	.	.	(2d^\	się	.
4B-\	.	4B-\	-bie	.	.	.	.	.	.
4G\	4ee- 4b- 4e-/	4G\	się	.	.	.	4e-\)	.	.
4A\	4cc 4f/	4A\	wzno-	4c\	.	.	4c\	wzno-	.
=16	=16	=16	=16	=16	=16	=16	=16	=16	=16
2.B-\	2.dd 2.b- 2.f/	2B-\	-sie-	2B-\	.	.	2d\	-sie-	.
.	.	4B-\	-my	4B-\	.	.	4d\	-my	.
4BB-/	4r	4BB-/	Przez	4r	.	.	4r	.	.
=17	=17	=17	=17	=17	=17	=17	=17	=17	=17
2B-\	2r	2B-^\	cie-	1r	.	.	2r	.	.
2A\	4r	2A^\	-bie	.	.	.	4r	.	.
.	4ff 4f/	.	.	.	.	.	4f\	Przez	.
=18	=18	=18	=18	=18	=18	=18	=18	=18	=18
*	*^	*	*	*	*	*	*	*	*
2G\	2ee- 2e-/	2ryy	2G\	wy-	2r	.	.	2e-^\	Cie-	.
2F\	2dd/	4d\	2F\	-ba-	4r	.	.	2d^\	-bie	.
!	!	!	!	!	!LO:TX:t=P:problem=brak początku łuku	!	!	!	!	!
.	.	4b-\	.	.	(4B-\	Wy-	.	.	.	.
!!LO:PB:g=original
=19	=19	=19	=19	=19	=19	=19	=19	=19	=19	=19
4E-\	2gg/	1b-	(2E-\	-wie-	2B-\)	.	.	2g^\	wy-	.
4e-\	.	.	.	.	.	.	.	.	.	.
4D\	2ff/	.	2D\	.	2B-\	-ba-	.	2f^\	-ba-	.
4d\	.	.	.	.	.	.	.	.	.	.
=20	=20	=20	=20	=20	=20	=20	=20	=20	=20	=20
4C\	4ff/	4g\	2C/)	.	(4G/	-wie-	.	(4f\	-wie-	.
4c\	4ee-/	4a\	.	.	4A/)	.	.	4e-\)	.	.
4BB-/	4dd/	2b-\	4BB-/	-ni	4B-\	-ni	.	4d\	-ni	.
4E-\	4cc/	.	4E-\	twój	4B-\	twój	.	4c\	twój	.
=21	=21	=21	=21	=21	=21	=21	=21	=21	=21	=21
2F\	1dd	1b-	2F\	.	2B-\	.	.	2d\	Chry-	.
2F#X\	.	.	2F#X\	.	2B-\	.	.	2d\	-ste	.
=22	=22	=22	=22	=22	=22	=22	=22	=22	=22	=22
2G\	2dd 2b-\	2ryy	2G\	.	2B-\	.	.	2d\	zgon	.
2C/	4ff/	2g\	2C/	.	2G/	.	.	(4f\	swię-	.
.	4ee-/	.	.	.	.	.	.	4e-\)	.	.
=23	=23	=23	=23	=23	=23	=23	=23	=23	=23	=23
[2F\	2dd/	2.b-\	1F	.	(2.B-\	.	.	(2d\	-cie	.
2F] 2FF/	2cc/	.	.	.	.	.	.	2c\)	.	.
.	.	4a\	.	.	4A\)	.	.	.	.	.
*	*v	*v	*	*	*	*	*	*	*	*
!!LO:LB:g=original
=24	=24	=24	=24	=24	=24	=24	=24	=24	=24
8BB-/L	8b-/L	2B- 2BB-\	.	2B-\	my	.	2B-\	.	.
8D/	8f/	.	.	.	.	.	.	.	.
8F/	8d/	.	.	.	.	.	.	.	.
8D/J	8f/J	.	.	.	.	.	.	.	.
!	!	!LO:TX:a:t=Solo	!	!LO:TX:a:t=Solo	!	!	!LO:TX:a:t=Solo	!	!
8BB-/L	8b-/L	4r	.	4r	.	.	4r	.	.
8D/	8f/	.	.	.	.	.	.	.	.
8FF/	8a 8f/	4F\	.	(8A/L	Ze-	.	(8A\L	.	.
8F/J	8b-J 8g/	.	.	8G/J)	.	.	8B-\J)	.	.
=25	=25	=25	=25	=25	=25	=25	=25	=25	=25
*	*^	*	*	*	*	*	*	*	*
*tremolo	*	*	*	*	*	*	*	*	*	*
!LO:TX:t=P:problem=mixed beam	!	!	!	!	!	!	!	!	!	!
8FF/L	4.cc 4.a\	2ryy	2F\	.	4.A/	-bra-	.	4.c\	.	.
8F\	.	.	.	.	.	.	.	.	.	.
8FF/	.	.	.	.	.	.	.	.	.	.
8F\J	8bn 8g#X\	.	.	.	8G#X/	-ni	.	8Bn\	.	.
*rep	*	*	*	*	*	*	*	*	*	*
!LO:TX:t=P:problem=mixed beam	!	!	!	!	!	!	!	!	!	!
8FF/L	4cc/	2a\	4F\	.	4A/	dzis	.	4c\	.	.
8F\	.	.	.	.	.	.	.	.	.	.
8FF/	4ff/	.	4F\	.	4A/	po	.	4f\	.	.
8F\J	.	.	.	.	.	.	.	.	.	.
*Xrep	*	*	*	*	*	*	*	*	*	*
=26	=26	=26	=26	=26	=26	=26	=26	=26	=26	=26
8CC/L	2ff/	2.b- 2.g\	2C/	.	2G/	spo-	.	2f\	.	.
8C/	.	.	.	.	.	.	.	.	.	.
8CC/	.	.	.	.	.	.	.	.	.	.
8C/J	.	.	.	.	.	.	.	.	.	.
*rep	*	*	*	*	*	*	*	*	*	*
8CC/L	4een/	.	4C/	.	4G/	-łu	.	4en\	.	.
8C/	.	.	.	.	.	.	.	.	.	.
8CC/	8gL 8en/	4ryy	4C/	.	8En/L	skła-	.	8G/L	.	.
8C/J	8aJ 8f/	.	.	.	8F/J	.	.	8A/J	.	.
*Xrep	*	*	*	*	*	*	*	*	*	*
*	*v	*v	*	*	*	*	*	*	*	*
=27	=27	=27	=27	=27	=27	=27	=27	=27	=27
*rep	*	*	*	*	*	*	*	*	*
8CC/L	4.b- 4.g/	4.C/	.	4.G/	-da-	.	4.B-\	.	.
8C/	.	.	.	.	.	.	.	.	.
8CC/	.	.	.	.	.	.	.	.	.
8C/J	8a 8f#X/	8C/	.	8F#X/	-my	.	8A\	.	.
8CC/L	4b- 4g/	4C/	.	4G/	ci	.	4B-\	.	.
8C/	.	.	.	.	.	.	.	.	.
8CC/	4dd 4b-\	4C/	.	4B-\	o-	.	4d\	.	.
8C/J	.	.	.	.	.	.	.	.	.
*Xrep	*	*	*	*	*	*	*	*	*
!!LO:LB:g=original
=28	=28	=28	=28	=28	=28	=28	=28	=28	=28
!LO:TX:t=P:problem=mixed beam	!LO:SIC:v:n=2:s=g#	!	!	!	!	!	!	!	!
8FF/L	4.bn 4.g/	2F^\	.	(4.G#X/	-fia-	.	(4.Bn^\	.	.
8F\	.	.	.	.	.	.	.	.	.
8FF/	.	.	.	.	.	.	.	.	.
8F\J	8cc 8a/	.	.	8A/)	.	.	8c\)	.	.
*Xtremolo	*	*	*	*	*	*	*	*	*
8FF/	4a 4f/	4F\	.	4F/	-ry	.	4A\	.	.
4F\	.	.	.	.	.	.	.	.	<
.	(8aL 8f/	(8F\L	.	(8F/L	Z ie-	.	(8A\L	.	.
8En\	8cc#XJ 8a/)	8En\J)	.	8G#/J)	.	.	8c#X\J)	.	.
=29	=29	=29	=29	=29	=29	=29	=29	=29	=29
*	*^	*	*	*	*	*	*	*	*
4.D\	4.dd 4.f/	2ryy	4.D\	.	4.F/	-dne-	.	4.d\	.	.
8C#X\	8een 8a\	.	8C#X\	.	8A/	-go	.	8en\	.	[
4D\	4ff/	2a\	4D\	.	4A/	Oj-	.	4f\	.	.
.	.	.	.	.	.	.	.	.	.	>
4F\	4dd/	.	4F\	.	4A/	-ca	.	4d\	.	.
=30	=30	=30	=30	=30	=30	=30	=30	=30	=30	=30
4G\	4b-/	1g	(4G\	.	2G/	sto-	.	(4B-\	.	.
.	.	.	.	.	.	.	.	.	.	]
4F\	4bn/	.	4F\)	.	.	.	.	4Bn\)	.	.
2En\	4.cc/	.	4.En\	.	4.G/	-łu	.	4.c\	.	.
.	8b-X/	.	8E\	.	8G/	Je-	.	8B-X\	.	.
*	*v	*v	*	*	*	*	*	*	*	*
=31	=31	=31	=31	=31	=31	=31	=31	=31	=31
4.F\	4.a 4.f/	4.F\	.	4.F/	-dna	.	4.A\	.	.
8D\	8ff 8a\	8D\	.	8A/	kie-	.	8f\	.	.
4BB-/	4dd 4b-\	4BB-/	.	4B-/	-bie-	.	4d\	.	.
4C/	4een 4g\	4C/	.	4G/	-rzem	.	4en\	.	.
!!LO:PB:g=original
=32	=32	=32	=32	=32	=32	=32	=32	=32	=32
*tremolo	*	*	*	*	*	*	*	*	*
!LO:TX:t=P:problem=mixed beam	!	!	!	!	!	!	!	!	!
8FF/L	2gg 2b-\	2F\	.	2B-\	da-	.	2g\	.	.
8F\	.	.	.	.	.	.	.	.	.
8FF/	.	.	.	.	.	.	.	.	.
8F\J	.	.	.	.	.	.	.	.	.
4F 4FF/	4ff 4a\	4E-\	.	4A\	-ry	.	4f\	.	.
[4F\	[4f/	4r	.	4r	.	.	4r	.	.
=33	=33	=33	=33	=33	=33	=33	=33	=33	=33
4F\]	4f/]	1r	.	1r	.	.	2r	.	.
4F\	4f 4A/	.	.	.	.	.	.	.	.
4E-\	4g 4B-/	.	.	.	.	.	4r	.	.
!	!	!	!	!	!	!	!LO:TX:a:t=Tutti.	!	!
4C\	4a 4f 4e- 4c/	.	.	.	.	.	4F/	Spraw	.
=34	=34	=34	=34	=34	=34	=34	=34	=34	=34
*	*^	*	*	*	*	*	*	*	*
4BB-/	2b- 2d/	2ryy	1r	.	2r	.	.	2B-\	Bo-	.
4B-\	.	.	.	.	.	.	.	.	.	.
4A\	2cc/	4f\	.	.	4r	.	.	2c\	-że	.
4F\	.	4a\	.	.	4F/	Spra[w]	.	.	.	.
*	*v	*v	*	*	*	*	*	*	*	*
=35	=35	=35	=35	=35	=35	=35	=35	=35	=35
4BB-/	2dd 2b-\	2r	.	(2B-\	byś-	.	(2d\	byś-	.
4B-\	.	.	.	.	.	.	.	.	.
4E-\	4ee- 4cc\	4r	.	4c\)	.	.	4e-\)	.	.
4F\	4cc 4a\	4F\	Spraw	4A\	-my	.	4c\	-my	.
=36	=36	=36	=36	=36	=36	=36	=36	=36	=36
4BB-/	2dd 2b-\	4BB-/	byś-	(2B-\	zgo-	.	((2d\	zgo-	.
4B-\	.	4B-\	-my	.	.	.	.	.	.
4F\	4cc 4a\	4F\	zgo-	4A\	.	.	4c\)	.	.
4G\	4b- 4g\	4G\	.	4G\)	.	.	4B-\)	.	.
=37	=37	=37	=37	=37	=37	=37	=37	=37	=37
*^	*^	*	*	*	*	*	*	*	*
4F\	2ryy	2.cc/	2.a\	2.F\	-dnie	2.A\	-dnie	.	2.c\	-dnie	.
4FF/	.	.	.	.	.	.	.	.	.	.	.
4F\	4ryy	.	.	.	.	.	.	.	.	.	.
4F/	4r	4r	4ryy	4r	.	4F/	Jak	.	4r	.	.
*	*	*v	*v	*	*	*	*	*	*	*	*
!!LO:LB:g=original
=38	=38	=38	=38	=38	=38	=38	=38	=38	=38	=38
2f\	1r	2r	1r	.	2f\	bra-	.	2r	.	.
2e-\	.	4r	.	.	4e-\	-cia	.	4r	.	.
.	.	[4f/	.	.	4e-\	Jak	.	4F/	Jak	.
=39	=39	=39	=39	=39	=39	=39	=39	=39	=39	=39
*	*	*^	*	*	*	*	*	*	*	*
2d\	2r	2ff/	2.f\]	2r	.	2d\	.	.	2f\	bra-	.
2c\	4r	2ee-/	.	4r	.	2c\	.	.	2e-\	-cia	.
.	4F\	.	4cc\	4F\	Jak	.	.	.	.	.	.
*v	*v	*	*	*	*	*	*	*	*	*	*
*	*v	*v	*	*	*	*	*	*	*	*
=40	=40	=40	=40	=40	=40	=40	=40	=40	=40
4BB-/	2dd 2b- 2f/	4BB-/	bra-	2.B-\	.	.	2d\	wiecz-	.
4B-\	.	4B-\	-cia	.	.	.	.	.	.
4G\	4ee- 4b- 4e-/	4G\	wiecz-	.	.	.	(4e-\	-nie	.
4A\	4cc 4f/	4A\	-nie	4c\	.	.	4c\)	.	.
=41	=41	=41	=41	=41	=41	=41	=41	=41	=41
4B-\	2.dd 2.b- 2.f/	2B-\	ży-	2B-\	.	.	2d\	ży-	.
4BB-/	.	.	.	.	.	.	.	.	.
4B-\	.	4B-\	-li,	4B-\	.	.	4d\	-li	.
4BB-/	4r	4BB-/	O-	4r	.	.	4r	.	.
=42	=42	=42	=42	=42	=42	=42	=42	=42	=42
2B-\	2r	2B-\	-fia-	1r	.	.	2r	.	.
2A\	4r	2A\	-ry	.	.	.	4r	.	.
.	4ff 4f/	.	.	.	.	.	4f\	o-	.
=43	=43	=43	=43	=43	=43	=43	=43	=43	=43
*	*^	*	*	*	*	*	*	*	*
2G\	2ee- 2e-/	2ryy	2G\	two-	2r	.	.	2e-\	-fia-	.
2F\	2dd/	4d\	2F\	-jej	4r	.	.	2d\	-ry	.
.	.	4b-\	.	.	(4B-\	two-	.	.	.	.
!!LO:LB:g=original
=44	=44	=44	=44	=44	=44	=44	=44	=44	=44	=44
4E-\	2gg/	1b-	(2E-\	go-	2B-\)	.	.	2g\	two-	.
4e-\	.	.	.	.	.	.	.	.	.	.
4D\	2ff/	.	2D\	.	2B-\	-iej	.	2f\	-jej	.
4d\	.	.	.	.	.	.	.	.	.	.
=45	=45	=45	=45	=45	=45	=45	=45	=45	=45	=45
4C\	4ff/	4g\	2C/)	.	(4G/	go-	.	(4f\	go-	.
4c\	4ee-/	4a\	.	.	4A/)	.	.	4e-\)	.	.
4BB-/	4dd/	2b-\	4BB-/	-dni	4B-\	-dni	.	4d\	-dni	.
4E-\	4cc/	.	4E-\	na-	4B-\	na-	.	4c\	na-	.
=46	=46	=46	=46	=46	=46	=46	=46	=46	=46	=46
*	*	*	*	*ij	*	*ij	*	*	*	*
4F\	1dd	1b-	2F\	-u-	2B-\	-u-	.	2d\	-u-	.
4FF/	.	.	.	.	.	.	.	.	.	.
4F#X\	.	.	2F#X\	-ki	2B-\	-ki	.	2d\	-ki	.
*	*	*	*	*Xij	*	*Xij	*	*	*	*
4FF#X/	.	.	.	.	.	.	.	.	.	.
=47	=47	=47	=47	=47	=47	=47	=47	=47	=47	=47
4G\	2dd 2b-\	2ryy	2G\	.	2B-\	.	.	2d\	twe	.
4GG/	.	.	.	.	.	.	.	.	.	.
2C\	4ff/	2g\	2C/	.	2G/	.	.	(4f\	peł-	.
.	4ee-/	.	.	.	.	.	.	4e-\)	.	.
=48	=48	=48	=48	=48	=48	=48	=48	=48	=48	=48
4F\	2dd/	2.b-\	1F	.	2.B-\	.	.	(2d\	-ni-	.
4FF/	.	.	.	.	.	.	.	.	.	.
4F\	2cc/	.	.	.	.	.	.	2c\)	.	.
4FF/	.	4a\	.	.	4A\	.	.	.	.	.
=49	=49	=49	=49	=49	=49	=49	=49	=49	=49	=49
4BB-/	4b-\	2ryy	4BB-/	.	4B-\	.	.	4B-\	-li	.
4B-\	4dd\	.	4r	.	4r	.	.	4r	.	.
2Bn\	4gg/	2dd [2g\	2r	.	2r	.	.	2r	.	.
.	4ff/	.	.	.	.	.	.	.	.	.
!!LO:PB:g=original
=50	=50	=50	=50	=50	=50	=50	=50	=50	=50	=50
*	*	*^	*	*	*	*	*	*	*	*
4c\	2ee-/	4g\]	1cc	1ryy	.	1ryy	.	.	1ryy	.	.
4B-X\	.	4g-X\	.	.	.	.	.	.	.	.	.
2A\	4ff/	2f\	.	.	.	.	.	.	.	.	.
.	4ee-/	.	.	.	.	.	.	.	.	.	.
*	*	*v	*v	*	*	*	*	*	*	*	*
=51	=51	=51	=51	=51	=51	=51	=51	=51	=51	=51
4B-\	2dd/	2b-\	1ryy	.	1ryy	.	.	1ryy	.	.
4B- 4G\	.	.	.	.	.	.	.	.	.	.
2C/	4ff/	2g\	.	.	.	.	.	.	.	.
.	4ee-/	.	.	.	.	.	.	.	.	.
=52	=52	=52	=52	=52	=52	=52	=52	=52	=52	=52
2F\	2dd/	2.a\	1ryy	.	1ryy	.	.	1ryy	.	.
2F 2FF/	2cc/	.	.	.	.	.	.	.	.	.
.	.	4a\	.	.	.	.	.	.	.	.
*	*v	*v	*	*	*	*	*	*	*	*
=53	=53	=53	=53	=53	=53	=53	=53	=53	=53
1BB-;	1b-;	1ryy	.	1ryy	.	.	1ryy	.	.
==	==	==	==	==	==	==	==	==	==
*-	*-	*-	*-	*-	*-	*-	*-	*-	*-
!!!system-decoration: s1,s2,s3[(s4,s5)]
!!!ENC: Katarzyna Serwa
!!!END: 2021-08-16
!!!ENC: Marta Lawrence
!!!END: 2021-09-09
!!!YEC: Copyright 2022 Narodowy Instytut Fryderyka Chopina (https://polishscores.org)
!!!YEM: Licence CC BY 4.0 (https://creativecommons.org/licenses/by/4.0)
